X: 5
T: Trim The Velvet
R: reel
M: 4/4
L: 1/8
K: Dmaj
|:D3F ED D2|D2 (3FGA GE E2|D3F ED D2|ABcA GE E2|
D3F E3G|FGAF GE E2|AD D2 ED D2|ABcA GE E2||
|:AdBd Ad d2|ABAF GE E2|AdBd Ad d2|ABcA GE E2|
A3B AFDF|ADFD GE E2|Ad (3Bcd Ad d2|ABcA GE E2||
|:d3e fdec|d2 ef gfec|d2 (3fed edfd|ABcA GE E2|
d3e fdec|d2ef gf e2|fd d2 edfd|ABcA GE E2||
|:(3FED AD FD D2|(3FED AF GE E2|(3FED AD FD D2|ABcA GE E2|
(3FED AD FD D2 |AD D2 GE E2|F3D E2 (3EFG|A2 (3cBA GE E2||


Tune 1142	Setting 1142

